X:381
T:Happy to Meet and Sorry to Part
T:Happy to Meet, Sorry to Part
R:jig
Z:id:hn-jig-381
M:6/8
L:1/8
K:G
d2B BAB|GEF G2A|Bee dBA|Bef gfe|
dBB BAB|GEF G2A|Bee dBA|1 BGF Gfe:|2 BGF GBd||
|:gag fed|Bdd def|~g3 fed|Bee e2f|
gfe fed|Bdd def|gfg aga|1 bgf gef:|2 bgf gfe||
